src/icons/outline/symbols/eye-hidden.svg

<svg width="24" height="24" viewBox="0 0 24 24" fill="none" xmlns="http://www.w3.org/2000/svg">
<path d="M20.1943 3.21875C20.4854 2.92702 20.9677 2.92702 21.2588 3.21875C21.5497 3.51046 21.5497 3.99345 21.2588 4.28516L18.5186 7.03125C20.0341 7.99697 21.3793 9.16376 22.4131 10.3105C23.1958 11.1856 23.1956 12.4933 22.4131 13.3584C20.0043 16.0041 15.999 18.8013 11.9844 18.751H11.8447C10.4497 18.751 9.06408 18.3983 7.73926 17.835L3.80469 21.7783C3.65421 21.9291 3.46403 21.9999 3.27344 22C3.08274 22 2.89176 21.9292 2.74121 21.7783C2.45035 21.4866 2.45022 21.0036 2.74121 20.7119L6.31445 17.1309L7.4082 16.0352L8.87402 14.5664L9.9375 13.5L13.6611 9.76758L14.7246 8.70117L16.0596 7.36328L17.1738 6.24707L20.1943 3.21875ZM15.6582 9.89844C15.9693 10.4819 16.1602 11.1357 16.1602 11.8398C16.1602 14.1434 14.2934 16.0145 11.9951 16.0146C11.3026 16.0146 10.6498 15.8236 10.0576 15.5117L8.89355 16.6787C9.90708 17.0408 10.9408 17.2622 11.9844 17.2422C15.5674 17.3227 19.1209 14.747 21.2988 12.3428H21.2891C21.5497 12.0612 21.5496 11.6188 21.2891 11.3271C20.2654 10.1904 18.93 9.03358 17.4346 8.11816L15.6582 9.89844ZM12.0049 4.91895C13.2493 4.88877 14.4939 5.1502 15.6982 5.59277L14.5137 6.78027C13.6908 6.5389 12.8476 6.39756 12.0146 6.42773H11.8643C8.39171 6.42786 4.8587 8.95285 2.71094 11.3369C2.45024 11.6185 2.45034 12.0609 2.71094 12.3525C3.62422 13.3585 4.7786 14.395 6.07324 15.25H6.06348L4.98926 16.3262C3.68462 15.4309 2.51021 14.3844 1.58691 13.3584C0.804383 12.4832 0.804173 11.1756 1.58691 10.3105C3.99565 7.66492 7.9803 4.82847 12.0049 4.91895ZM11.2119 14.375C11.4628 14.4555 11.7339 14.5059 12.0049 14.5059C13.4702 14.5059 14.665 13.3085 14.665 11.8398H14.6748C14.6748 11.5582 14.6145 11.2964 14.5342 11.0449L11.2119 14.375ZM12.0049 7.65527C12.4965 7.65527 12.9582 7.75544 13.3896 7.90625L12.125 9.17383C12.0847 9.17376 12.0049 9.16406 12.0049 9.16406C10.5396 9.16412 9.3457 10.3614 9.3457 11.8301C9.34576 11.8691 9.35486 11.9453 9.35547 11.9502L8.09082 13.2178C7.94034 12.7753 7.83989 12.3128 7.83984 11.8301C7.83984 9.52647 9.70657 7.65533 12.0049 7.65527Z" fill="#212121"/>
</svg>

<svg xmlns="http://www.w3.org/2000/svg" width="24" height="24" fill="none" viewBox="0 0 24 24"><path fill="currentColor" d="M20.194 3.219a.757.757 0 0 1 1.065 0 .76.76 0 0 1 0 1.066l-2.74 2.746a19.3 19.3 0 0 1 3.894 3.28 2.27 2.27 0 0 1 0 3.047c-2.409 2.646-6.414 5.443-10.429 5.393h-.14c-1.394 0-2.78-.353-4.105-.916l-3.934 3.943a.745.745 0 0 1-1.063 0 .76.76 0 0 1 0-1.066l3.572-3.581 1.094-1.096 1.466-1.469L9.937 13.5l3.724-3.732L14.725 8.7l1.335-1.338 1.114-1.116zm-4.536 6.68c.311.583.502 1.237.502 1.94a4.173 4.173 0 0 1-4.165 4.176 4.14 4.14 0 0 1-1.937-.503l-1.164 1.167c1.013.362 2.047.583 3.09.563 3.583.08 7.137-2.495 9.315-4.9h-.01a.76.76 0 0 0 0-1.015 17.8 17.8 0 0 0-3.854-3.209zm-3.653-4.98c1.244-.03 2.489.231 3.693.674L14.514 6.78c-.823-.241-1.666-.382-2.5-.352h-.15c-3.472 0-7.005 2.525-9.153 4.909a.757.757 0 0 0 0 1.015 18 18 0 0 0 3.362 2.898h-.01L4.99 16.326a19.5 19.5 0 0 1-3.402-2.968 2.27 2.27 0 0 1 0-3.048C3.996 7.666 7.98 4.828 12.005 4.92m-.793 9.456c.25.08.522.13.793.13a2.67 2.67 0 0 0 2.66-2.665h.01c0-.282-.06-.544-.14-.795zm.793-6.72c.491 0 .953.1 1.385.251l-1.265 1.268c-.04 0-.12-.01-.12-.01a2.667 2.667 0 0 0-2.66 2.666c0 .04.01.115.01.12l-1.264 1.268a4.3 4.3 0 0 1-.251-1.388 4.173 4.173 0 0 1 4.165-4.175"/></svg>
